X: 2
T: Miss McLeod's
R: reel
M: 4/4
L: 1/8
K: Amaj
|:A3c e2 ce|fecf ecBc|A3c e2cB|AFAF EAcB|A3c e2 ce|fecB ABce|fedc defa|afec BAcB:|


Tune 75	Setting 12561

